X:18568
T:Wedding Reel, The
M:C|
L:1/8
R:reel
D:Lúnasa: The Merry Sisters of Fate
Z:Devin McCabe
K:D
DE|:EFBF AFEF|D/2D/2D DE FABd|eefd efed|ABeB dBAG|
!(EF2)B AFEF|D/2D/2D DE FABd|eefd efdB|1ABde dDDE:|2ABde dABd||
!:A3f edfd|A/2A/2A Af edfd|ABdA BdAB|dBAF EDB,D|
!(EF2)B AFEF|D/2D/2D DE FABd|eefd efdB|1ABde d~B3:|2ABde dDDE||


